icons/4_Outdated/OwnCube v1.svg

<svg width="1024" height="1024" viewBox="0 0 1024 1024" fill="none" xmlns="http://www.w3.org/2000/svg">
<g clip-path="url(#clip0_3_623)">
<path d="M512 1024C794.77 1024 1024 794.77 1024 512C1024 229.23 794.77 0 512 0C229.23 0 0 229.23 0 512C0 794.77 229.23 1024 512 1024Z" fill="#9ABEFF"/>
<path d="M495.1 496.798C504.4 502.198 519.5 502.198 528.8 496.798L698.2 398.498C707.5 393.098 707.5 384.298 698.2 378.998L528.8 281.198C519.5 275.798 504.3 275.798 495 281.198L325.6 378.998C316.3 384.398 316.3 393.098 325.6 398.498L495.1 496.798ZM504.7 538.698C504.7 527.998 497.1 514.798 487.8 509.398L317.8 410.798C308.5 405.398 300.9 409.798 300.9 420.498V617.298C300.9 627.998 308.5 641.198 317.8 646.498L487.7 744.598C497 749.998 504.6 745.598 504.6 734.898L504.7 538.698ZM536.2 509.398C526.9 514.798 519.3 527.998 519.3 538.698V734.898C519.3 745.598 526.9 749.998 536.2 744.598L706.1 646.498C715.4 641.098 723 627.998 723 617.298V420.498C723 409.798 715.4 405.398 706.1 410.798L536.2 509.398Z" fill="white"/>
</g>
<defs>
<clipPath id="clip0_3_623">
<rect width="1024" height="1024" fill="white"/>
</clipPath>
</defs>
</svg>

<svg width="1024" height="1024" fill="none" xmlns="http://www.w3.org/2000/svg"><g clip-path="url(#a)"><path d="M512 1024c282.77 0 512-229.23 512-512S794.77 0 512 0 0 229.23 0 512s229.23 512 512 512Z" fill="#9ABEFF"/><path d="M495.1 496.798c9.3 5.4 24.4 5.4 33.7 0l169.4-98.3c9.3-5.4 9.3-14.2 0-19.5l-169.4-97.8c-9.3-5.4-24.5-5.4-33.8 0l-169.4 97.8c-9.3 5.4-9.3 14.1 0 19.5l169.5 98.3Zm9.6 41.9c0-10.7-7.6-23.9-16.9-29.3l-170-98.6c-9.3-5.4-16.9-1-16.9 9.7v196.8c0 10.7 7.6 23.9 16.9 29.2l169.9 98.1c9.3 5.4 16.9 1 16.9-9.7l.1-196.2Zm31.5-29.3c-9.3 5.4-16.9 18.6-16.9 29.3v196.2c0 10.7 7.6 15.1 16.9 9.7l169.9-98.1c9.3-5.4 16.9-18.5 16.9-29.2v-196.8c0-10.7-7.6-15.1-16.9-9.7l-169.9 98.6Z" fill="#fff"/></g><defs><clipPath id="a"><path fill="#fff" d="M0 0h1024v1024H0z"/></clipPath></defs></svg>
